tools/download-figma-icons/icons/outlined-large/diamond.svg

<svg width="64" height="64" viewBox="0 0 64 64" fill="none" xmlns="http://www.w3.org/2000/svg">
<path d="M61 29.5107C60.9904 29.229 60.9039 28.9553 60.75 28.7193L51.75 14.6952C51.6959 14.6203 51.6357 14.5499 51.57 14.4849C51.4884 14.4103 51.3977 14.3463 51.3 14.2946H51.24L50.98 14.1944H50.88C50.797 14.1839 50.713 14.1839 50.63 14.1944H16.46H16.21H16.13C16.0256 14.2177 15.9247 14.2547 15.83 14.3046C15.83 14.3046 15.83 14.3046 15.78 14.3046C15.6995 14.3522 15.6226 14.4058 15.55 14.4648L15.48 14.535C15.4216 14.5868 15.3681 14.6438 15.32 14.7053L5.32 28.7294V28.7995C5.12663 29.0951 5.04835 29.4516 5.1 29.8012H5C5.05005 30.0498 5.16377 30.2811 5.33 30.4724L32.23 63.5292C32.3094 63.6169 32.3964 63.6973 32.49 63.7696C32.49 63.7696 32.49 63.7696 32.54 63.7696C32.6392 63.8368 32.7468 63.8907 32.86 63.9299H32.97C33.1061 63.9726 33.2474 63.9962 33.39 64C33.5297 63.9927 33.6678 63.9657 33.8 63.9198H33.91C34.022 63.8697 34.1291 63.8093 34.23 63.7395H34.28C34.373 63.6664 34.457 63.5823 34.53 63.4891L60.6 30.4323C60.807 30.1691 60.9228 29.8456 60.93 29.5107H61ZM33.36 57.1783L25.52 31.0534H40.52L33.36 57.1783ZM26.33 28.0482L33 18.2013L39.67 28.0482H26.33ZM23.7 26.5857L18.93 17.0293H30.17L23.7 26.5857ZM35.83 17.0293H47.91L42.39 26.7159L35.83 17.0293ZM16.27 18.4317L21.07 28.0482H9.42L16.27 18.4317ZM22.38 31.0534L29.81 55.7959L9.66 31.0534H22.38ZM36.83 55.866L43.64 31.0534H56.4L36.83 55.866ZM45.09 28.0482L50.58 18.4216L56.75 28.0482H45.09Z" fill="black"/>
<path d="M33 11.0189C33.3978 11.0189 33.7794 10.8606 34.0607 10.5788C34.342 10.2971 34.5 9.91487 34.5 9.51636V1.50258C34.5 1.10407 34.342 0.721885 34.0607 0.440096C33.7794 0.158307 33.3978 0 33 0C32.6022 0 32.2206 0.158307 31.9393 0.440096C31.658 0.721885 31.5 1.10407 31.5 1.50258V9.51636C31.5 9.91487 31.658 10.2971 31.9393 10.5788C32.2206 10.8606 32.6022 11.0189 33 11.0189Z" fill="black"/>
<path d="M40.73 10.8087C40.9638 10.9454 41.2293 11.0179 41.5 11.019C41.7596 11.0185 42.0148 10.951 42.2407 10.8229C42.4667 10.6948 42.6559 10.5105 42.79 10.2878L45.79 5.27917C45.8911 5.10948 45.9579 4.92149 45.9865 4.72595C46.0151 4.53041 46.0049 4.33114 45.9566 4.13952C45.9084 3.9479 45.8229 3.76769 45.7051 3.60916C45.5872 3.45064 45.4394 3.31692 45.27 3.21563C45.1006 3.11434 44.9129 3.04746 44.7177 3.01882C44.5225 2.99018 44.3236 3.00033 44.1323 3.0487C43.941 3.09707 43.7611 3.18271 43.6029 3.30072C43.4446 3.41874 43.3111 3.56683 43.21 3.73652L40.21 8.74513C40.0078 9.08835 39.949 9.49762 40.0464 9.88401C40.1438 10.2704 40.3894 10.6027 40.73 10.8087Z" fill="black"/>
<path d="M23.3299 10.458C23.4696 10.6344 23.6475 10.7766 23.8502 10.8738C24.053 10.971 24.2751 11.0206 24.4999 11.019C24.7828 11.0192 25.0601 10.9392 25.2996 10.7883C25.5391 10.6374 25.7311 10.4217 25.8535 10.1661C25.9758 9.91051 26.0235 9.62547 25.991 9.34389C25.9585 9.06232 25.8472 8.79569 25.6699 8.5748L21.6699 3.56619C21.5464 3.41228 21.3939 3.28423 21.2211 3.18936C21.0482 3.09448 20.8584 3.03464 20.6625 3.01325C20.4666 2.99185 20.2683 3.00933 20.0791 3.06467C19.89 3.12001 19.7135 3.21214 19.5599 3.3358C19.4062 3.45945 19.2784 3.61221 19.1837 3.78535C19.089 3.95849 19.0292 4.14863 19.0079 4.3449C18.9865 4.54117 19.0039 4.73973 19.0592 4.92924C19.1144 5.11876 19.2064 5.29552 19.3299 5.44943L23.3299 10.458Z" fill="black"/>
<path d="M57.5 52.0896H56V50.5871C56 50.1885 55.842 49.8064 55.5607 49.5246C55.2794 49.2428 54.8978 49.0845 54.5 49.0845C54.1022 49.0845 53.7206 49.2428 53.4393 49.5246C53.158 49.8064 53 50.1885 53 50.5871V52.0896H51.5C51.1022 52.0896 50.7206 52.2479 50.4393 52.5297C50.158 52.8115 50 53.1937 50 53.5922C50 53.9907 50.158 54.3729 50.4393 54.6547C50.7206 54.9365 51.1022 55.0948 51.5 55.0948H53V56.5974C53 56.9959 53.158 57.3781 53.4393 57.6599C53.7206 57.9417 54.1022 58.1 54.5 58.1C54.8978 58.1 55.2794 57.9417 55.5607 57.6599C55.842 57.3781 56 56.9959 56 56.5974V55.0948H57.5C57.8978 55.0948 58.2794 54.9365 58.5607 54.6547C58.842 54.3729 59 53.9907 59 53.5922C59 53.1937 58.842 52.8115 58.5607 52.5297C58.2794 52.2479 57.8978 52.0896 57.5 52.0896Z" fill="black"/>
<path d="M11.5 44.076H10V42.5734C10 42.1749 9.84196 41.7927 9.56066 41.5109C9.27936 41.2291 8.89782 41.0708 8.5 41.0708C8.10218 41.0708 7.72064 41.2291 7.43934 41.5109C7.15804 41.7927 7 42.1749 7 42.5734V44.076H5.5C5.10218 44.076 4.72064 44.2343 4.43934 44.5161C4.15804 44.7979 4 45.18 4 45.5785C4 45.9771 4.15804 46.3592 4.43934 46.641C4.72064 46.9228 5.10218 47.0811 5.5 47.0811H7V48.5837C7 48.9822 7.15804 49.3644 7.43934 49.6462C7.72064 49.928 8.10218 50.0863 8.5 50.0863C8.89782 50.0863 9.27936 49.928 9.56066 49.6462C9.84196 49.3644 10 48.9822 10 48.5837V47.0811H11.5C11.8978 47.0811 12.2794 46.9228 12.5607 46.641C12.842 46.3592 13 45.9771 13 45.5785C13 45.18 12.842 44.7979 12.5607 44.5161C12.2794 44.2343 11.8978 44.076 11.5 44.076Z" fill="black"/>
</svg>

<svg xmlns="http://www.w3.org/2000/svg" width="64" height="64" fill="none" viewBox="0 0 64 64"><path fill="currentColor" d="M61 29.51a1.55 1.55 0 0 0-.25-.79l-9-14.025a2 2 0 0 0-.18-.21 1.3 1.3 0 0 0-.27-.19h-.06l-.26-.1h-.1a1 1 0 0 0-.25 0h-34.5q-.157.035-.3.11h-.05a2 2 0 0 0-.23.16l-.07.07a1.3 1.3 0 0 0-.16.17l-10 14.024v.07a1.44 1.44 0 0 0-.22 1.002H5c.05.249.164.48.33.671l26.9 33.057a2 2 0 0 0 .26.24h.05q.15.102.32.16h.11q.205.065.42.071.211-.01.41-.08h.11q.169-.075.32-.18h.05q.14-.111.25-.25L60.6 30.431a1.54 1.54 0 0 0 .33-.921zM33.36 57.179l-7.84-26.125h15zm-7.03-29.13L33 18.201l6.67 9.847zm-2.63-1.462-4.77-9.557h11.24zm12.13-9.557h12.08l-5.52 9.687zm-19.56 1.403 4.8 9.616H9.42zm6.11 12.621 7.43 24.743L9.66 31.053zm14.45 24.813 6.81-24.813H56.4zm8.26-27.818 5.49-9.626 6.17 9.626zM33 11.019a1.5 1.5 0 0 0 1.5-1.503V1.503A1.504 1.504 0 0 0 33 0a1.5 1.5 0 0 0-1.5 1.503v8.013A1.504 1.504 0 0 0 33 11.02m7.73-.211a1.51 1.51 0 0 0 2.06-.52l3-5.01a1.507 1.507 0 0 0-1.072-2.26 1.5 1.5 0 0 0-1.508.718l-3 5.008a1.515 1.515 0 0 0 .52 2.064m-17.4-.351a1.48 1.48 0 0 0 1.17.561 1.498 1.498 0 0 0 1.491-1.675 1.5 1.5 0 0 0-.321-.77l-4-5.008a1.5 1.5 0 0 0-1.59-.501 1.5 1.5 0 0 0-1.072 1.28 1.5 1.5 0 0 0 .322 1.104zM57.5 52.09H56v-1.503a1.504 1.504 0 0 0-1.5-1.503 1.5 1.5 0 0 0-1.5 1.503v1.503h-1.5a1.5 1.5 0 0 0-1.5 1.502 1.504 1.504 0 0 0 1.5 1.503H53v1.502a1.504 1.504 0 0 0 1.5 1.503 1.5 1.5 0 0 0 1.5-1.503v-1.502h1.5a1.5 1.5 0 0 0 1.5-1.503 1.504 1.504 0 0 0-1.5-1.502m-46-8.014H10v-1.503a1.504 1.504 0 0 0-1.5-1.502A1.5 1.5 0 0 0 7 42.573v1.503H5.5A1.5 1.5 0 0 0 4 45.578a1.504 1.504 0 0 0 1.5 1.503H7v1.503a1.504 1.504 0 0 0 1.5 1.502 1.5 1.5 0 0 0 1.5-1.502V47.08h1.5a1.5 1.5 0 0 0 1.5-1.503 1.504 1.504 0 0 0-1.5-1.502"/></svg>
